app/assets/images/heroicons/micro/wrench-screwdriver.svg

<svg width="16" height="16" viewBox="0 0 16 16" fill="none" xmlns="http://www.w3.org/2000/svg">
<path fill-rule="evenodd" clip-rule="evenodd" d="M15 4.5C15 6.433 13.433 8 11.5 8C11.4782 8 11.4564 7.9998 11.4347 7.9994C10.4457 7.98129 9.34165 8.13216 8.73436 8.91296L4.60494 14.2222C4.22325 14.713 3.63637 15 3.01466 15C1.90199 15 1 14.098 1 12.9853C1 12.3636 1.28703 11.7768 1.77778 11.3951L7.08704 7.26564C7.86784 6.65835 8.01871 5.55435 8.0006 4.56535C8.0002 4.54361 8 4.52183 8 4.5C8 2.567 9.567 1 11.5 1C11.8391 1 12.1669 1.04822 12.477 1.13817C12.8017 1.23238 12.8662 1.63516 12.6271 1.87425L10.5995 3.90184C10.4212 4.08015 10.4024 4.36442 10.5672 4.55521C10.8384 4.86896 11.1321 5.16267 11.4459 5.43382C11.6367 5.59872 11.921 5.57986 12.0993 5.40148L14.126 3.37385C14.365 3.13464 14.768 3.19913 14.8621 3.52398C14.9519 3.83377 15 4.16127 15 4.5ZM3.75 13C3.75 13.4142 3.41421 13.75 3 13.75C2.58579 13.75 2.25 13.4142 2.25 13C2.25 12.5858 2.58579 12.25 3 12.25C3.41421 12.25 3.75 12.5858 3.75 13Z" fill="black"/>
<path d="M11.5 9.5C11.8133 9.5 12.1198 9.47119 12.4171 9.41609L14.3792 11.3782C14.777 11.776 15.0005 12.3156 15.0005 12.8782C15.0005 14.0498 14.0508 14.9995 12.8792 14.9995C12.3166 14.9995 11.777 14.776 11.3792 14.3782L8.56934 11.5684L9.91839 9.83387C9.96832 9.76968 10.077 9.67625 10.3455 9.60111C10.6235 9.52335 10.984 9.4914 11.4072 9.49915C11.4381 9.49972 11.469 9.5 11.5 9.5Z" fill="black"/>
<path d="M5.0005 3.99953L6.44618 5.4452C6.43289 5.51934 6.41715 5.58918 6.39889 5.65446C6.32375 5.923 6.23032 6.03168 6.16613 6.08161L5.55663 6.55566L4.0005 4.99953H2.65501C2.56032 4.99953 2.47375 4.94603 2.43141 4.86133L1.08109 2.16069C1.03296 2.06445 1.05183 1.9482 1.12792 1.87211L1.87309 1.12694C1.94918 1.05085 2.06542 1.03199 2.16167 1.08011L4.86231 2.43043C4.947 2.47278 5.0005 2.55934 5.0005 2.65404V3.99953Z" fill="black"/>
</svg>

<svg xmlns="http://www.w3.org/2000/svg" viewBox="0 0 16 16" fill="currentColor" aria-hidden="true" data-slot="icon">
  <path fill-rule="evenodd" d="M15 4.5A3.5 3.5 0 0 1 11.435 8c-.99-.019-2.093.132-2.7.913l-4.13 5.31a2.015 2.015 0 1 1-2.827-2.828l5.309-4.13c.78-.607.932-1.71.914-2.7L8 4.5a3.5 3.5 0 0 1 4.477-3.362c.325.094.39.497.15.736L10.6 3.902a.48.48 0 0 0-.033.653c.271.314.565.608.879.879a.48.48 0 0 0 .653-.033l2.027-2.027c.239-.24.642-.175.736.15.09.31.138.637.138.976ZM3.75 13a.75.75 0 1 1-1.5 0 .75.75 0 0 1 1.5 0Z" clip-rule="evenodd"/>
  <path d="M11.5 9.5c.313 0 .62-.029.917-.084l1.962 1.962a2.121 2.121 0 0 1-3 3l-2.81-2.81 1.35-1.734c.05-.064.158-.158.426-.233.278-.078.639-.11 1.062-.102l.093.001ZM5 4l1.446 1.445a2.256 2.256 0 0 1-.047.21c-.075.268-.169.377-.233.427l-.61.474L4 5H2.655a.25.25 0 0 1-.224-.139l-1.35-2.7a.25.25 0 0 1 .047-.289l.745-.745a.25.25 0 0 1 .289-.047l2.7 1.35A.25.25 0 0 1 5 2.654V4Z"/>
</svg>
